src/icons/console.svg

<svg viewBox="0 0 24 24" xmlns="http://www.w3.org/2000/svg">
  <path
    d="M20 19V7H4V19H20ZM20 3C20.5304 3 21.0391 3.21071 21.4142 3.58579C21.7893 3.96086 22 4.46957 22 5V19C22 19.5304 21.7893 20.0391 21.4142 20.4142C21.0391 20.7893 20.5304 21 20 21H4C3.46957 21 2.96086 20.7893 2.58579 20.4142C2.21071 20.0391 2 19.5304 2 19V5C2 4.46957 2.21071 3.96086 2.58579 3.58579C2.96086 3.21071 3.46957 3 4 3H20ZM13 17V15H18V17H13ZM9.58 13L5.57 9H8.4L11.7 12.3C12.09 12.69 12.09 13.33 11.7 13.72L8.42 17H5.59L9.58 13Z"
    fill="#FF7043"
  />
</svg>

<svg viewBox="0 0 24 24" xmlns="http://www.w3.org/2000/svg">
  <path
    d="M20 19V7H4v12h16m0-16a2 2 0 0 1 2 2v14a2 2 0 0 1-2 2H4a2 2 0 0 1-2-2V5a2 2 0 0 1 2-2h16m-7 14v-2h5v2h-5m-3.42-4L5.57 9H8.4l3.3 3.3c.39.39.39 1.03 0 1.42L8.42 17H5.59z"
    fill="#ff7043"
  />
</svg>
